assets/Unlocked/Flat/unlocked_flat.svg

<svg width="32" height="32" viewBox="0 0 32 32" fill="none" xmlns="http://www.w3.org/2000/svg">
<path d="M23.5 2C20.1863 2 17.5 4.68629 17.5 8V11C17.5 13.4215 18.9345 15.5079 21 16.456V13.4495C20.3814 12.8182 20 11.9537 20 11V8C20 6.067 21.567 4.5 23.5 4.5C25.433 4.5 27 6.067 27 8V9.75C27 10.4404 27.5596 11 28.25 11C28.9404 11 29.5 10.4404 29.5 9.75V8C29.5 4.68629 26.8137 2 23.5 2Z" fill="#D3D3D3"/>
<path d="M3 14C3 12.3431 4.34315 11 6 11H22C23.6569 11 25 12.3431 25 14V27C25 28.6569 23.6569 30 22 30H6C4.34315 30 3 28.6569 3 27V14Z" fill="#F9C23C"/>
<path d="M15.5 20.5002C16.1072 20.0441 16.5 19.3179 16.5 18.5C16.5 17.1193 15.3807 16 14 16C12.6193 16 11.5 17.1193 11.5 18.5C11.5 19.3179 11.8928 20.0441 12.5 20.5002V24C12.5 24.8284 13.1716 25.5 14 25.5C14.8284 25.5 15.5 24.8284 15.5 24V20.5002Z" fill="#433B6B"/>
</svg>

<svg xmlns="http://www.w3.org/2000/svg" width="32" height="32" fill="none"><path fill="#D3D3D3" d="M23.5 2a6 6 0 0 0-6 6v3a6.001 6.001 0 0 0 3.5 5.456V13.45A3.489 3.489 0 0 1 20 11V8a3.5 3.5 0 1 1 7 0v1.75a1.25 1.25 0 1 0 2.5 0V8a6 6 0 0 0-6-6Z"/><path fill="#F9C23C" d="M3 14a3 3 0 0 1 3-3h16a3 3 0 0 1 3 3v13a3 3 0 0 1-3 3H6a3 3 0 0 1-3-3V14Z"/><path fill="#433B6B" d="M15.5 20.5a2.5 2.5 0 1 0-3 0V24a1.5 1.5 0 0 0 3 0v-3.5Z"/></svg>
